X: 66
M: 6/8
L: 1/8
K: D
|:\
d2d e2e | c2(c d3) | f2f g2g | e2e f2f |\
d2d e2e | c2c d3 | edc TB2A | {c}BA^G | A3 :|
|:\
a2a f2f | e2^d e2E | g2g e2e | d2c d2D |\
a2a bab | c'bc' d'2d | agf {f}e2d | edc d3 :|
|:\
a2a f2f | e2^d e2E | g2g e2e | d2c d2D |\
a2a bab | c'bc' d'2d | (ag)f {f}e2d | {f}edc d3 |]


